X: 4363
T: AFAR BORNE. (Lucia di Lammermoor.)
%R: air, jig, march
B: James Kerr "Merry Melodies" v.4 p.39 #363
Z: 2016 John Chambers <jc:trillian.mit.edu>
M: 6/8
L: 1/8
K: C
|:!p!\
g2^f g2=f | e2^d e2=d | c2d efg | a2g d3 |\
g2^f g2=f | e2^d e2f | ^fgc e=fB |[1 (c2e/d/) c3 H:|[2 (c2e/d/) c2 ||\
c |\
f2f f2f | f^de e2e | f2f f2f | f3 "_D.C."^f3 |]

%%sep 1 1 500
%%sep 1 1 500

